!!!SOCIAL_FUNCTION:	songs connected with ceremonies
!!!PDT:	1929
!!!OTL: No_104_I_Draw_the_Rain.krn
!!!REG: Southwest
!!!LANG: Non-Tone
!!!LING_GROUP: Uto-Aztecan
**kern
*staff1
=1-
*clefF4
*k[b-e-a-]
*M2/4
2c\
=2
4c\
8B-\L
8G\J
=3
2B-\
=4
4.G\
8F\
=5
[2B-\
=6
4B-\]
4F\
=7
4F\
4E-\
=8
8C/L
8BB-/J
8BB-/
8r
=9
2C/
=10
4E-\
8E-/L
8C/J
=11
4E-\
4C/
=12
8C/L
8BB-/J
4BB-/
=13
2BB-/
=14
2BB-/
=15
2F\
=16
4.F\
8E-\
=17
4F\
4E-\
=18
2C/
=19
4C/
4E-\
=20
4E-\
8E-/L
8C/J
=21
4E-\
4C/
=22
4BB-/
4BB-/
=23
2BB-/
==
*-
